!!!OTL: Exultet
!!!SMS: Cp: Capua, Tesoro della Cattedrale
**kern	**silbe
*	*LLatin
*staff10	*staff10
!Cp	!Cp
=1-	=1-
*clefGv2	*
*k[]	*
1r	.
=2-	=2-
1r	.
=3-	=3-
1r	.
=4-	=4-
1r	.
=5-	=5-
1r	.
=6-	=6-
1r	.
=7-	=7-
1r	.
=8-	=8-
1r	.
=9-	=9-
1r	.
=10-	=10-
1r	.
=11-	=11-
1r	.
=12-	=12-
1r	.
=13-	=13-
1r	.
=14-	=14-
1r	.
=15-	=15-
1r	.
=16-	=16-
1r	.
=17-	=17-
1r	.
=18-	=18-
1r	.
=19-	=19-
1r	.
=20-	=20-
1r	.
=21-	=21-
1r	.
=22-	=22-
1r	.
=23-	=23-
1r	.
=24-	=24-
1r	.
=25-	=25-
1r	.
=26-	=26-
1r	.
=27-	=27-
1r	.
=28-	=28-
1r	.
=29-	=29-
1r	.
=30-	=30-
1r	.
=31-	=31-
1r	.
=32-	=32-
1r	.
=33-	=33-
1r	.
=34-	=34-
1r	.
=35-	=35-
1r	.
=36-	=36-
1r	.
=37-	=37-
1r	.
=38-	=38-
1r	.
=39-	=39-
1r	.
=40-	=40-
1r	.
=41-	=41-
1r	.
=42-	=42-
1r	.
=43-	=43-
1r	.
=44-	=44-
1r	.
=45-	=45-
1r	.
=46-	=46-
1r	.
=47-	=47-
1r	.
=48-	=48-
1r	.
=49-	=49-
1r	.
=50-	=50-
1r	.
=51-	=51-
1r	.
=52-	=52-
1r	.
=53-	=53-
1r	.
=54-	=54-
1r	.
=55-	=55-
1r	.
=56-	=56-
1r	.
=57-	=57-
1r	.
=58-	=58-
1r	.
=59-	=59-
1r	.
=60-	=60-
1r	.
=61-	=61-
1r	.
=62-	=62-
1r	.
=63-	=63-
1r	.
=64-	=64-
1r	.
=65-	=65-
1r	.
=66-	=66-
1r	.
=67-	=67-
1r	.
=68-	=68-
1r	.
=69-	=69-
1r	.
=70-	=70-
1r	.
=71-	=71-
1r	.
=72-	=72-
1r	.
=73-	=73-
1r	.
=74-	=74-
1r	.
=75-	=75-
1r	.
=76-	=76-
1r	.
=77-	=77-
1r	.
=78-	=78-
1r	.
=79-	=79-
1r	.
=80-	=80-
1r	.
=81-	=81-
1r	.
=82-	=82-
1r	.
=83-	=83-
1r	.
=84-	=84-
1r	.
=85-	=85-
1r	.
=86-	=86-
1r	.
=87-	=87-
1r	.
=88-	=88-
1r	.
=89-	=89-
1r	.
=90-	=90-
1r	.
=91-	=91-
1r	.
=92-	=92-
1r	.
=93-	=93-
1r	.
=94-	=94-
1r	.
=95-	=95-
1r	.
=96-	=96-
1r	.
=97-	=97-
1r	.
=98-	=98-
1r	.
=99-	=99-
1r	.
=100-	=100-
(8F	Hec
8A)	.
4G	nox
(8F	est
8G)	.
8G	que
8G	ho-
=101-	=101-
8G	-di-
8G	-e
16G	per
8G	u-
8G	-ni-
8G	-(ver-
8F	-sum
(16F	mun-
16G)	.
16G	-dum
=102-	=102-
8G	in
(16G	chri-
16A)	.
(16A	-sto)
16G)	.
8F	cre-
(8G	-den-
8A	.
8G)	.
8F	-tes.
=103-	=103-
8F	a
8A	vi-
8G	-ti-
8G	-is
8G	se-
8G	-cu-
8G	-li
8G	se-
=104-	=104-
8F	-gre-
(16F	-[g]a-
16G)	.
8G	-tos
4G	(et
8G	ca-
8G	-li-
8G	-gi-
=105-	=105-
8G	-ne
8G	pec-
8G	-ca-
8G	to)
(4G	-rum.
4A)	.
=106-	=106-
(8A	red-
8G)	.
4F	-dit
(8G	gra-
8A)	.
(8G	-ti-
8F)	.
=107-	=107-
8F	-e
8G	so-
4F	-ci-
(8G	-at
8A)	.
(8G	.
8A)	.
=108-	=108-
8G	.
8F	.
8A	sanc-
(8G	-ti-
8A	.
8G)	.
8F	-ta-
8F	-ti.
=109-	=109-
(8F	Hec
8A)	.
4G	nox
4G	est.
8G	in
8G	qua
=110-	=110-
8G	de-
8G	-struc-
8G	-tis
(8G	vin-
8A)	.
(8A	-cu-
8G)	.
8F	-lis
=111-	=111-
(4G	mor-
4A	.
4G)	.
4F	-tis.
=112-	=112-
4A	chris-
4G	-tus
8G	ab
8G	in-
8G	-fe-
8F	-ris
=113-	=113-
(8G	vic-
8A)	.
(8G	.
8A)	.
8G	.
8F	.
4A	-tor
=114-	=114-
(8G	a-
8A	.
4G)	.
4F	-scen-
4F	-dit.
=115-	=115-
(4F	Ni-
4A)	.
4G	-chil
4G	e-
=116-	=116-
4G	-(nim
4G	no-
(8G	-bis)
8A)	.
(8A	na-
8G)	.
=117-	=117-
4F	-sci
(8G	pro-
8A)	.
(8G	-fu-
8F)	.
4F	-it.
=118-	=118-
4F	(ni)-
4F	-si
4G	re-
4F	-di-
=119-	=119-
(8G	-mi
8A)	.
(8G	.
8A)	.
8G	.
8F	.
4A	pro-
=120-	=120-
(4G	-fu-
8A	.
8G)	.
4F	-is-
4F	-set
=121-	=121-
(8F	O
8A)	.
8G	mi-
8G	-ra
8G	cir-
8G	-ca
8G	nos
16G	tu-
16G	-e
=122-	=122-
8G	pi-
8G	-e-
(8G	-ta-
8A)	.
(8A	-tis
8G)	.
4F	di-
=123-	=123-
(4G	-gna-
8A)	.
(4G	-ti-
8F)	.
4F	-o.
=124-	=124-
(8F	(o
8A)	.
8G	i-
8G	-ne-
8G	-sti-
8G	ma)
8G	-bi-
8G	-lis
=125-	=125-
8G	di-
8G	-lec-
4G	-ti-
(8G	-o
8A)	.
(8A	ca-
8G)	.
=126-	=126-
4F	-ri-
(4G	-ta-
8A	.
8G)	.
4F	-tis.
=127-	=127-
8F	ut
8A	ser-
8G	-vum
4G	re-
8G	-di-
8G	-me-
8G	-res
=128-	=128-
8G	fi-
8F	-li-
(8G	-um
8A)	.
(8G	.
8A)	.
8G	.
8F	.
=129-	=129-
4A	(tra-
(8G	-di-
16A	.
16G)	.
4F	-di-
4F	-sti)
=130-	=130-
(8F	O
8A)	.
4G	cer-
4G	-ta
4G	ne-
=131-	=131-
8G	-ces-
4G	-sa-
8G	-ri-
4G	-um
(8G	a-
8A)	.
=132-	=132-
(8A	-de
8G)	.
8F	pec-
(8G	-ca-
8A	.
8G)	.
4F	-tum.
=133-	=133-
8F	quod
8G	chri-
8F	-sti
(8G	mor-
8A)	.
(8G	.
8A)	.
8G	.
=134-	=134-
8F	.
8A	-te
(8G	de-
8A	.
8G)	.
8F	-le-
8F	-tum
8F	est.
=135-	=135-
(8G	O
16A)	.
(8A	fe-
16G)	.
8F	-lix
(8G	cul-
8A	.
8G)	.
8F	-pa.
=136-	=136-
8F	que
8A	ta-
8G	-lem
8F	ac
(16F	tan-
16G)	.
8G	-tum
8G	me-
8G	-ru-
=137-	=137-
8G	-it
8G	ha-
4F	-be-
(8G	-re
8A)	.
(8G	.
8A)	.
=138-	=138-
16G	.
16F	.
8A	re-
(8G	-demp-
8A	.
8G)	.
8F	.
8F	-to-
8F	-rem
=139-	=139-
(16F	O
16A)	.
8G	be-
8G	-a-
8F	-ta
8G	nox.
8G	que
8G	so-
8F	-la
=140-	=140-
(16F	me-
16G)	.
8G	-ru-
8G	-it
8G	sci-
4G	-re
(8G	tem-
8A)	.
=141-	=141-
(8A	-pus
8G)	.
8F	et
(8G	ho-
8A	.
8G)	.
4F	-ra.
=142-	=142-
8F	in
8A	qua
8G	chris-
8G	-tus
8G	ab
8G	in-
4F	-fe-
=143-	=143-
(8G	-ris
8A)	.
(8G	.
8A)	.
8G	.
8F	.
4A	re-
=144-	=144-
(4G	-sur-
8A	.
8G)	.
4F	-re-
4F	-xit.
=145-	=145-
(16F	Hec
16A)	.
4G	nox
8G	est.
4G	de
8F	qua
(16F	scrip-
16G)	.
=146-	=146-
8G	-tum
8G	est.
8G	et
8G	nox
8G	ut
8G	di-
4G	-es
=147-	=147-
(8G	il-
16A)	.
(16A	-lu-
8G)	.
8F	-mi-
(8G	-na-
16A)	.
(8G	-bi-
16F)	.
8F	-tur.
=148-	=148-
8F	et
8A	nox
8G	il-
8G	-lu-
8G	-mi-
8G	-na-
8G	-ti-
8F	-o
=149-	=149-
(16F	me-
16G)	.
8G	-a
8G	in
8F	de-
(8G	-li-
16A)	.
(8G	.
16A)	.
16G	.
16F	.
=150-	=150-
4A	-ci-
(8G	-is
16A	.
16G)	.
4F	me-
4F	-is.
=151-	=151-
(8F	Hu-
8A)	.
8G	-ius
4G	i-
8G	-gi-
8G	-tur
8G	sanc-
=152-	=152-
8G	-ti-
4G	-fi-
8G	-ca-
4G	-ti-
4F	-o
=153-	=153-
(4F	noc-
4G)	.
(4G	-tis
4A)	.
=154-	=154-
(4A	fu-
4G)	.
4F	-gat
(4G	sce-
=155-	=155-
4A)	.
(8G	-le-
8F)	.
4F	-ra.
(8A	cul-
8G)	.
=156-	=156-
4F	-pas
(4G	la-
8A	.
8G)	.
4F	-vat.
=157-	=157-
4A	red-
4G	-dit
4G	in-
4G	-no-
=158-	=158-
(8G	-cen-
16A)	.
(8A	-ti-
16G)	.
8F	-am
(8G	lap-
16A	.
16G)	.
8F	-sis.
8A	me-
=159-	=159-
16A	-stis
(16A	.
16G)	.
8F	le-
(8G	-ti-
8A)	.
(8G	-ti-
8F)	.
8F	-am.
=160-	=160-
4A	fu-
(8A	.
8G)	.
4F	-gat
(8G	ho-
8A)	.
=161-	=161-
(8G	-di-
8F)	.
4F	-a.
4G	con-
(8G	-cor-
8A)	.
=162-	=162-
(8A	-di-
8G)	.
4F	-am
(8G	p[a]-
8A	.
8G)	.
8F	-rat.
=163-	=163-
4F	et
(4G	cur-
8A)	.
(4G	.
8A)	.
=164-	=164-
8G	.
8F	.
4A	-vat
(4G	im-
4A	.
=165-	=165-
4G)	.
4F	-pe-
4F	-ri-
4F	-a.
=166-	=166-
(8F	In
8A)	.
4G	hu-
4G	-ius
4G	i-
=167-	=167-
4G	-gi-
4G	-tur
4G	noc-
4F	-tis
=168-	=168-
(4F	gra-
4G)	.
4G	-ti-
4G	-a.
=169-	=169-
8G	su-
8G	-sci-
8G	-pe
8G	sanc-
8F	-te
(16F	pa-
16G)	.
8G	-ter
8G	in-
=170-	=170-
8G	-cen-
8F	-si
(16F	hu-
16G)	.
8G	-ius
8G	sa-
8G	-cri-
8G	-fi-
8G	-ci-
=171-	=171-
(16G	-um
16A)	.
(16A	ves-
16G)	.
4F	-per-
(8G	-ti-
8A	.
8G)	.
8F	-num.
=172-	=172-
8F	quod
16A	ti-
8G	-bi
16G	in
8G	hac
16G	ce-
8G	-re-
8G	-i
16G	o-
16G	-bla-
=173-	=173-
8G	-ti-
(16G	-o-
16A)	.
(16A	-ne
16G)	.
8F	sol-
(8G	lemp
16A	.
16G)	.
16F	.
16F	-mni.
8F	per
=174-	=174-
8F	mi-
8F	-ni-
8A	-stro-
8G	-rum
(8F	ma-
8G)	.
4G	-nus.
=175-	=175-
8G	de
8G	o-
(16G	-pe-
16A)	.
(16A	-ri-
16G)	.
8F	-bus
(8G	a-
16A	.
16G)	.
8F	-pum.
=176-	=176-
8G	sa-
8G	-cro-
8G	-sanc-
8F	-ta
(16G	red-
16A)	.
(16G	.
16A)	.
16G	.
16F	.
8A	-dit
=177-	=177-
(8G	ec-
16A	.
16G)	.
4F	-cle-
4F	-si-
4F	-a.
=178-	=178-
(8F	Sed
8A)	.
8G	iam
8G	co-
8G	-lum-
8F	-ne
(8F	hu-
8G)	.
=179-	=179-
8G	-ius
8G	pre-
(8G	-co-
8A)	.
(8A	-ni-
8G)	.
4F	-a
=180-	=180-
(4G	no-
8A)	.
(4G	-vi-
8F)	.
4F	-mus.
=181-	=181-
8F	quam
8F	in
8F	ho-
8A	-no-
8G	-rem
(8F	de-
8G)	.
8G	-i
=182-	=182-
8G	ru-
8G	-ti-
8F	-lans
(8G	ig-
8A)	.
(8G	.
8A)	.
8G	.
=183-	=183-
8F	.
4A	-nis
(8G	ac-
8A	.
8G)	.
8F	-cen-
8F	-dit.
=184-	=184-
(4F	Qui
4A)	.
4G	li-
=185-	=185-
4G	-cet
4G	di-
4G	-vi-
4G	-sus
=186-	=186-
4F	in
(4F	par-
4G)	.
4G	-tes.
=187-	=187-
8G	mu-
8G	-tu-
8G	-a-
8G	-ti
8G	ta-
8F	-men
(8F	lu-
8G)	.
=188-	=188-
8G	-mi-
8G	-nis
8G	de-
8F	-tri-
(8G	-men-
8A)	.
(8G	.
8A)	.
=189-	=189-
8G	.
8F	.
8A	-ta
(8G	non
8A	.
8G)	.
8F	no-
8F	-vit.
=190-	=190-
(8F	A-
8A)	.
4G	-li-
4G	-tur
4G	li-
=191-	=191-
(4G	-quan-
4A)	.
(4A	-ti-
4G)	.
=192-	=192-
4F	-bus
(4G	ce-
8A	.
8G)	.
4F	-ris.
=193-	=193-
8F	quas
16F	in
8F	sub-
16A	-stan-
8G	-ti-
16G	-am
8G	pre-
8F	-ti-
(16F	-o-
16G)	.
16G	-se
=194-	=194-
8G	hu-
8F	-ius
(16F	lam-
16G)	.
16G	-pa-
16G	-dis
16G	a-
16F	-pis
(16G	ma-
16A)	.
(16G	.
16A)	.
16G	.
16F	.
=195-	=195-
4A	-ter
(8G	e-
16A	.
16G)	.
4F	-du-
4F	-xit.
=196-	=196-
(8F	A-
8A)	.
4G	-pis
4G	ce-
4G	-te-
=197-	=197-
4G	-ris
8G	que
8G	sub-
(8G	-iec-
8A)	.
(8A	-ta
8G)	.
=198-	=198-
4F	sunt
(8G	ho-
8A)	.
(8G	-mi-
8F)	.
4F	-ni.
=199-	=199-
4G	a-
4G	-ni-
4G	man
4F	-ti-
=200-	=200-
(8G	-bus
8A)	.
(8G	.
8A)	.
8G	.
8F	.
4A	an-
=201-	=201-
(8G	-te-
8A	.
4G)	.
4F	-cel-
4F	-lit
=202-	=202-
(8F	Cum
8A)	.
4G	sit
4G	mi-
4G	-ni-
=203-	=203-
8G	-ma
8G	cor-
4G	-po-
(8G	-ris
8A)	.
(8A	par-
8G)	.
=204-	=204-
4F	-vi-
(4G	-ta-
8A	.
8G)	.
4F	-te.
=205-	=205-
8F	in-
8A	-gen-
8G	-tes
8G	a-
8G	-ni-
8G	-mos
8G	an-
8G	-gu-
=206-	=206-
4G	-sto
4G	ver-
4G	-sat
4F	in
=207-	=207-
(4F	pec-
4G)	.
4G	-to-
4G	-re.
=208-	=208-
8G	vi-
8G	-ri-
(8G	-bus
8A)	.
(8A	im-
8G)	.
8F	-bec-
(8G	-cil-
=209-	=209-
8A	.
8G)	.
8F	-lis.
8F	sed
(16G	for-
16A)	.
(16G	.
16A)	.
16G	.
16F	.
8A	-tis
=210-	=210-
(8G	in-
8A	.
8G)	.
8F	-ge-
4F	-ni-
4F	-o.
=211-	=211-
(8F	Hec
8A)	.
4G	ex-
4G	-plo-
4G	-ra-
=212-	=212-
4G	-ta
(4G	tem-
8A)	.
(4A	-po-
8G)	.
=213-	=213-
4F	-rum
(4G	vi-
8A	.
8G)	.
4F	-ce.
=214-	=214-
8F	cum
8F	ca-
8A	-ni-
8G	-ti-
8G	-em
8G	pru-
8F	-i-
(16F	-no-
16G)	.
=215-	=215-
4G	-sa.
4G	hi-
(8G	-ber-
8A)	.
(8A	-na
8G)	.
=216-	=216-
4F	po-
(8G	-su-
8A)	.
(8G	-e-
8F)	.
4F	-rint.
=217-	=217-
8F	et
8F	gla-
8F	-ci-
8A	-a-
8G	-li
8G	se-
8G	-ni-
8G	-o
=218-	=218-
8G	ver-
8F	-ni
(16F	tem-
16G)	.
8G	-po-
8G	-ris.
8G	mo-
8G	-de-
(16G	-ra-
16A)	.
=219-	=219-
(8A	-ta
8G)	.
8F	de-
(8G	-ter-
8A)	.
(8G	-se-
8F)	.
8F	-rint.
=220-	=220-
8A	sta-
8G	-tim
8G	pro-
8G	-de-
8G	-un-
8G	-di
8G	ad
8G	la-
=221-	=221-
8G	-bo-
8F	-rem
(8G	cu-
8A)	.
(8G	.
8A)	.
8G	.
8F	.
=222-	=222-
4A	-ra
(8G	suc-
8A	.
8G)	.
8F	-ce-
4F	-dit.
=223-	=223-
(16F	Di-
16A)	.
8G	-sper-
8G	-se-
8G	-que
8F	per
(8F	a-
8G)	.
8G	-gros
=224-	=224-
8G	li-
8G	-bra-
8G	-tis
(8G	pau-
8A)	.
(4A	-lu-
8G)	.
=225-	=225-
4F	-lum
(4G	pen-
8A	.
8G)	.
4F	-nis.
=226-	=226-
4A	cru-
4G	-ri-
4G	-bus
4F	su-
=227-	=227-
(8G	-spen-
8A)	.
(8G	.
8A)	.
8G	.
8F	.
4A	-sis
=228-	=228-
(4G	in-
8A	.
8G)	.
4F	-si-
4F	-dunt.
=229-	=229-
(8F	Par-
8A)	.
4G	-tim
4G	o-
4G	-re
=230-	=230-
(4G	le-
8A)	.
(4A	-ge-
8G)	.
4F	-re
=231-	=231-
(4G	flo-
8A)	.
(4G	scu
8F)	.
4F	-los.
=232-	=232-
8F	ho-
8F	-ne-
8A	-ra-
8G	-tis
8G	vic-
8G	-tu-
4G	-a-
=233-	=233-
8G	-li-
8G	-bus
8G	su-
8F	-is
(8G	ad
8A)	.
(16G	.
16A)	.
16G	.
16F	.
=234-	=234-
4A	ca-
(8G	-stra
8A	.
8G)	.
8F	re-
8F	-me-
8F	-ant.
=235-	=235-
(8F	I-
8A)	.
4G	-bi-
4G	-que
4G	a-
=236-	=236-
4G	-li-
4G	-e
4G	i-
4G	-ne-
=237-	=237-
4G	-sti-
4G	-ma-
4G	-bi-
(8G	-li
8A)	.
=238-	=238-
(8A	ar-
8G)	.
8F	-te
(8G	cel-
8A)	.
(8G	-lu-
8F)	.
8F	-las.
=239-	=239-
8F	te-
8A	-na-
8G	-ci
(8G	glu-
8A)	.
(8A	-ti-
8G)	.
8F	-no
=240-	=240-
(8G	in-
8A)	.
(8G	.
8F)	.
4F	stru
4F	-unt.
=241-	=241-
(8F	a-
8A)	.
4G	-li-
4G	-e
4G	li-
=242-	=242-
4G	-quan-
4G	-ti-
(8G	-a
8A)	.
(8A	mel-
8G)	.
=243-	=243-
4F	-la
(8G	sti-
8A	.
4G)	.
4F	-pant.
=244-	=244-
4A	a-
4G	-li-
4G	-e
8G	ver-
8G	-tunt
=245-	=245-
(4G	flo-
4A)	.
(4A	-res
4G)	.
=246-	=246-
4F	in
(4G	ce-
8A	.
8G)	.
4F	-ram.
=247-	=247-
4A	a-
4G	-li-
4G	-e
4G	o-
=248-	=248-
(4G	-re
8A)	.
(4A	na-
8G)	.
4F	-tos
=249-	=249-
(4G	fin-
4A	.
4G)	.
4F	-gunt.
=250-	=250-
4A	a-
4G	-li-
8G	-e
8G	col-
8G	-lec-
8G	-tum
=251-	=251-
8G	e
8G	fo-
8G	-li-
8F	-is.
(8F	nec-
8A)	.
(16G	.
16A)	.
16G	.
16F	.
=252-	=252-
4A	-tar
(8G	in-
8A	.
8G)	.
8F	-clu-
4F	-dunt.
=253-	=253-
(4F	O
4A)	.
8G	ve-
4G	-re
8G	be-
=254-	=254-
8G	-a-
8G	-ta
8G	et
8G	mi-
(8G	-ra-
8A)	.
(8A	-bi-
8G)	.
=255-	=255-
4F	-lis
(4G	a-
8A	.
8G)	.
4F	-pis.
=256-	=256-
8F	cu-
8F	-ius
4F	nec
4A	se-
8G	-xum
8G	ma-
=257-	=257-
8G	scu
8F	-li
(8F	vi-
8G)	.
8G	-o-
8G	-lant.
8G	nec
(16G	fe-
16A)	.
=258-	=258-
(8A	-tus
8G)	.
4F	non
(8G	quas-
8A	.
8G)	.
8F	-sat.
=259-	=259-
4F	nec
4A	fi-
4G	-li-
4G	-i
=260-	=260-
8G	dex-
8F	tru
(8G	-unt
8A)	.
(8G	.
8A)	.
8G	.
8F	.
=261-	=261-
8A	ca-
(4G	-sti-
8A	.
8G)	.
8F	-ta-
4F	-tem.
=262-	=262-
(8F	Si-
8A)	.
8G	-cut
8G	sanc-
8G	-ta
8F	con-
(8F	-ce-
8G)	.
=263-	=263-
4G	-pit
(4G	vir-
8A)	.
(4A	-go
8G)	.
=264-	=264-
4F	ma-
(4G	-ri-
8A	.
8G)	.
4F	-a.
=265-	=265-
8A	vir-
(8A	.
8G)	.
8F	-go
(8G	pe-
8A)	.
(8G	-pe-
8F)	.
=266-	=266-
8F	-rit
8F	et
(8G	vir-
8A)	.
(8G	.
8A)	.
8G	.
8F	.
=267-	=267-
4A	-go
(8G	per-
8A	.
8G)	.
8F	man
4F	-sit.
=268-	=268-
(16F	O
16A)	.
8G	ve-
8G	-re
8G	be-
16G	-a-
16F	-ta
8G	nox.
8G	que
8G	ex-
=269-	=269-
8G	-po-
8G	-li-
(16G	-a-
16A)	.
(16A	-vit
16G)	.
8F	e-
(16G	-gyp-
16A)	.
(16G	-ti-
16F)	.
8F	-os.
=270-	=270-
8F	di-
(8G	-ta-
8A)	.
(8A	-vit
16G)	.
8F	he-
(16G	-bre-
16A	.
16G)	.
8F	-os.
=271-	=271-
8A	nox
8G	in
8G	qua
4G	ter-
8G	-re-
8G	-nis
8G	ce-
=272-	=272-
8F	les
(8G	-ti-
8A)	.
(8G	.
8A)	.
8G	.
8F	.
8A	-a
=273-	=273-
(4G	iun-
8A	.
8G)	.
4F	-gun-
4F	-tur.
=274-	=274-
(8F	O-
8A)	.
4G	-ra-
8G	-mus
8F	te
(8F	do-
8G)	.
=275-	=275-
4G	-mi-
8G	-ne.
4G	ut
8G	ce-
8G	-re-
8F	-us
=276-	=276-
(8F	i-
8G)	.
4G	-ste
4G	in
4G	ho-
=277-	=277-
4G	-no-
4G	-rem
4G	no-
4G	-mi-
=278-	=278-
4G	-nis
4G	tu-
(8G	-i
8A)	.
(8A	con-
8G)	.
=279-	=279-
4F	-se-
(4G	-cra-
8A	.
8G)	.
4F	-tus.
=280-	=280-
8F	ad
8A	noc-
8G	-tis
8G	hu-
8G	-ius
8G	ca-
8G	-li-
8G	-gi-
=281-	=281-
(16G	-nem
16A)	.
(8A	de-
16G)	.
8F	stru
(16G	-en-
16A	.
16G)	.
8F	-dam.
8G	in-
8G	-de-
=282-	=282-
16G	-fi-
8F	-ci-
(16G	-ens
16A)	.
(16G	.
16A)	.
16G	.
16F	.
8A	per-
(16G	-se-
16A	.
16G)	.
16F	-ve-
16F	-ret.
=283-	=283-
(8F	In
8A)	.
4G	ho-
8G	-do-
4G	-rem
8G	su-
=284-	=284-
4G	-a-
4G	-vi-
(8G	-ta-
8A)	.
(8A	-tis
8G)	.
=285-	=285-
4F	ac-
(4G	-cep-
8A	.
8G)	.
4F	-tus.
=286-	=286-
8F	su-
4A	-per-
8G	-nis
8G	lu-
8G	-mi-
8G	-na-
8F	-ri-
=287-	=287-
(8G	-bus
8A)	.
(8G	.
8A)	.
8G	.
8F	.
4A	mi-
=288-	=288-
(4G	-sce-
8A	.
8G)	.
4F	-a-
4F	-tur.
=289-	=289-
(8F	Flam-
8A)	.
4G	-mas
4G	e-
4F	-ius
=290-	=290-
(8F	lu-
8G)	.
8G	-ci-
8G	-fer
8G	ma-
8G	-tu-
(8G	-ti-
8A)	.
=291-	=291-
(8A	-nus
8G)	.
8F	in-
(8G	-ve-
8A)	.
(8G	-ni-
8F)	.
8F	-at.
=292-	=292-
8A	il-
8G	-le
8G	in-
8G	-quam
4G	lu-
4G	-ci-
=293-	=293-
4G	-fer
4G	qui
(8G	ne-
8A)	.
(8A	-scit
8G)	.
=294-	=294-
4F	oc-
(4G	-ca-
8A	.
8G)	.
4F	-sum.
=295-	=295-
8A	il-
8G	-le
8G	qui
8G	re-
(16G	-gres-
16A)	.
(16A	-sus
16G)	.
8F	ab
(16G	in-
16A)	.
=296-	=296-
(16G	-fe-
16F)	.
8F	-ris.
16F	hu-
16A	-ma-
8G	-no
16G	ge-
16G	-ne-
8G	-ri
8F	se-
(16G	-re-
16A)	.
=297-	=297-
(16G	.
16A)	.
16G	.
16F	.
8A	-nus
(8G	il-
8A	.
8G)	.
8F	-lu-
8F	-xit.
=298-	=298-
(4F	Pre-
4A)	.
4G	-ca-
4G	-mur
=299-	=299-
4G	er-
4G	-go
4F	te
(4F	do-
=300-	=300-
4G)	.
4G	-mi-
4G	-ne.
4G	ut
=301-	=301-
8G	nos
8G	fa-
8G	-mu-
8G	-los
8G	tu-
(16G	-os
16A)	.
(16A	om-
16G)	.
8F	-nem
=302-	=302-
(8G	cle-
16A	.
16G)	.
8F	-rum.
8G	et
8G	de-
8G	-vo-
(16G	-tis-
16A)	.
(16A	-si-
16G)	.
=303-	=303-
8F	-mum
(8G	po-
8A)	.
(8G	-pu-
4F)	.
4F	-lum.
=304-	=304-
4F	u-
4A	-na
4G	cum
8G	be-
8G	-a-
=305-	=305-
8G	-tis-
8G	-si-
4G	-mo
8G	pa-
8G	-pa
(8G	no-
8A)	.
=306-	=306-
(8A	-stro
8G)	.
8F	ill.
(8G	.
8A	.
8G)	.
4F	.
=307-	=307-
4G	et
4G	ab-
4G	-ba-
4G	-te
=308-	=308-
(4G	no-
4A)	.
(4A	-stro
4G)	.
=309-	=309-
4F	ill.
(8G	.
8A	.
4G)	.
4F	.
=310-	=310-
4F	cum
8A	om-
8G	-ni
8G	con-
8G	-gre-
8G	-ga-
8F	-ti-
=311-	=311-
(16F	-o-
8G)	.
8G	-ne
8G	be-
8G	-a-
8G	-tis-
8G	-si-
(8G	-mi
16A)	.
=312-	=312-
(8A	be-
8G)	.
8F	-ne-
(8G	dic
8A	.
8G)	.
4F	-ti.
=313-	=313-
8F	in
8A	his
8G	pa-
8G	-scha-
8G	-li-
8G	-bus
4G	gau-
=314-	=314-
8G	-di-
8G	-is
8G	con-
8F	ser
(16G	va
16A)	.
(16G	.
16A)	.
16G	.
16F	.
8A	-re
=315-	=315-
(4G	dig-
8A	.
8G)	.
4F	-ne-
4F	-ris.
=316-	=316-
(16F	Me-
16A)	.
16G	-men-
8G	-to
16G	e-
8G	-ti-
16G	-am
8G	do-
16G	-mi-
8G	-ne
8G	fa-
=317-	=317-
8G	-mu-
16G	-lo-
16G	-rum
8F	tu-
(16F	-o-
16G)	.
16G	-rum
8G	im-
16G	-pe-
16G	(ra
(16G	-to-
16A)	.
(16A	-rum
=318-	=318-
8G)	.
8F	no-
(8G	stro)
16A	.
16G)	.
8F	-rum
16F	ill.
(16G	et
16A	.
16G)	.
8F	ill.
=319-	=319-
8F	et
8F	ce-
8A	-le-
16G	-stem
8G	e-
8G	-is
8G	con-
16G	-ce-
8G	-de
=320-	=320-
8F	vic-
(16F	-to-
16G)	.
8G	-ri-
8G	-am
8G	cum
8G	om-
8G	-ni
16G	e-
16F	-xer-
=321-	=321-
(16G	-ci-
16A)	.
(16G	.
16A)	.
16G	.
16F	.
8A	-tu
(16G	e-
16A	.
16G)	.
8F	-o-
8F	-rum.
=322-	=322-
(8F	P(ro-
8A)	.
8G	-te-
8G	-ge)
8G	quo-
8G	-que
(8F	do-
8G)	.
=323-	=323-
16G	-mi-
8G	-ne
16G	pi-
8G	-is-
16G	-si-
8G	-mos
(16G	prin-
16A)	.
(16A	-ci-
16G)	.
8F	-pes
(16G	no-
=324-	=324-
8A	.
8G)	.
8F	-stros
8F	ill.
(8G	et
8A	.
8G)	.
8F	ill.
=325-	=325-
8F	cum
16A	om-
8G	-ni
16G	e-
8G	-xer-
16G	-ci-
8G	-tu
16F	e-
(16F	-o-
16G)	.
16G	-rum.
16G	et
=326-	=326-
8G	con-
8A	-ce-
8G	-de
(16F	e-
16G)	.
16G	-is
16G	u-
16G	-bi-
16G	-que
8F	vic-
(16F	-to-
16G)	.
=327-	=327-
16G	-ri-
8G	-am
16G	ad
16G	lau-
8G	-dem
(16G	no-
16A)	.
(16A	-mi-
16G)	.
16F	-nis
(16G	tu-
16A	.
16G)	.
16F	-i.
=328-	=328-
8G	et
16G	ad
8A	no-
8G	-stram
16G	qui
16G	ti-
8G	-bi
16G	sa-
8G	-cris
8G	fa-
=329-	=329-
8G	-mu-
16G	-la-
8G	-mur
16F	of-
(16F	-fi-
16G)	.
8G	-ci-
16G	-is
16G	pro-
8G	-pe
16G	tu-
16F	-am
=330-	=330-
(16G	de-
16A)	.
(16G	.
16A)	.
16G	.
16F	.
8A	fen
(16G	-si-
16A	.
16G)	.
16F	-o-
4F	-nem.
=331-	=331-
(8F	Per
8A)	.
4G	do-
8G	-mi-
4G	-num
8G	no-
=332-	=332-
8G	-strum
8G	hie-
8F	-sum
(8F	chri-
8G)	.
8G	-stum
(8G	fi-
8A)	.
=333-	=333-
(8A	-li-
8G)	.
4F	-um
(8G	tu-
8A	.
8G)	.
8F	-um.
=334-	=334-
8F	qui
8A	te-
8G	-cum
8G	vi-
8G	-vit
8F	et
(8F	reg-
8G)	.
=335-	=335-
8G	-nat
8G	in
8G	u-
8F	-ni-
(8F	-ta-
8G)	.
8G	-te
8G	spi-
=336-	=336-
8G	-ri-
(16G	-tus
16A)	.
(16A	sanc-
16G)	.
8F	-ti
(8G	de-
16A	.
16G)	.
4F	-us.
=337-	=337-
8F	per
8A	om-
8G	-ni-
8G	-a
4G	se-
4F	-cu-
=338-	=338-
(8G	-la
8A)	.
(8G	.
8A)	.
8G	.
8F	.
4A	se-
=339-	=339-
(8G	-cu-
8A	.
8G)	.
8F	-lo-
4F	-rum.
8E	a-
8F	-men.
=340-	=340-
1r	.
=341-	=341-
1r	.
=342-	=342-
1r	.
=343-	=343-
1r	.
=344-	=344-
1r	.
=345-	=345-
1r	.
=346-	=346-
1r	.
=347-	=347-
1r	.
=348-	=348-
1r	.
=349-	=349-
1r	.
=350-	=350-
1r	.
=351-	=351-
1r	.
=352-	=352-
1r	.
=353-	=353-
1r	.
=354-	=354-
1r	.
=355-	=355-
1r	.
=356-	=356-
1r	.
=357-	=357-
1r	.
=358-	=358-
1r	.
=359-	=359-
1r	.
=360-	=360-
1r	.
=361-	=361-
1r	.
=362-	=362-
1r	.
=363-	=363-
1r	.
=364-	=364-
1r	.
=365-	=365-
1r	.
=366-	=366-
1r	.
=367-	=367-
1r	.
=368-	=368-
1r	.
=369-	=369-
1r	.
=370-	=370-
1r	.
=371-	=371-
1r	.
=372-	=372-
1r	.
=373-	=373-
1r	.
=374-	=374-
1r	.
=375-	=375-
1r	.
=376-	=376-
1r	.
==	==
*-	*-
!!!hum2abc: -p "%%nostems" -M none
!!!ENC: Elsa De Luca
!!!RWG: Rhythms and barlines are for alignment only, not found in source.
!!!YEC: Copyright 2009, Elsa De Luca
!!!title: @{OTL}, @{SMS}
